Newaita-dark/apps/32/wps-office-wpsmain.svg

<svg height="32" viewBox="0 0 32 32" width="32" xmlns="http://www.w3.org/2000/svg" xmlns:xlink="http://www.w3.org/1999/xlink"><linearGradient id="a" gradientUnits="userSpaceOnUse" x1="15.876521" x2="15.876521" y1="28.033935" y2="29.35697900003"><stop offset="0" stop-opacity=".27451"/><stop offset="1" stop-opacity="0"/></linearGradient><linearGradient id="b"><stop offset="0" stop-opacity=".313726"/><stop offset=".222222" stop-opacity=".27451"/><stop offset="1" stop-opacity="0"/></linearGradient><radialGradient id="c" cx="450.908936" cy="189.579361" gradientTransform="matrix(.00000017 -.0781325 -.140638 -.0000001 48.823044 63.595333)" gradientUnits="userSpaceOnUse" r="21.166656" xlink:href="#b"/><radialGradient id="d" cx="450.908936" cy="189.579361" gradientTransform="matrix(-.00000017 .0781325 .140638 .0000001 -17.731531 -7.527479)" gradientUnits="userSpaceOnUse" r="21.166656" xlink:href="#b"/><radialGradient id="e" cx="450.908936" cy="189.579361" gradientTransform="matrix(-.00000017 -.0781325 .140638 -.0000001 -17.731531 63.595336)" gradientUnits="userSpaceOnUse" r="21.166656" xlink:href="#b"/><radialGradient id="f" cx="450.908936" cy="189.579361" gradientTransform="matrix(.00000017 .0781325 -.140638 .0000001 48.823044 -7.527479)" gradientUnits="userSpaceOnUse" r="21.166656" xlink:href="#b"/><linearGradient id="g" gradientUnits="userSpaceOnUse" x1="15.54572" x2="15.54572" y1="28.03386419623" y2="2.89610343548"><stop offset="0" stop-color="#eee"/><stop offset="1" stop-color="#f5f5f5"/></linearGradient><linearGradient id="h" gradientUnits="userSpaceOnUse" x1="142.907951" x2="251.387123" y1="260.476174" y2="72.584744"><stop offset="0" stop-color="#9e9e9e"/><stop offset="1" stop-color="#bdbdbd"/></linearGradient><linearGradient id="i"><stop offset="0" stop-color="#42a5f5"/><stop offset="1" stop-color="#64b5f6"/></linearGradient><linearGradient id="j" gradientTransform="matrix(.062506 0 0 .0789549 .000001 7.561165)" gradientUnits="userSpaceOnUse" x1="243.416656" x2="243.416656" xlink:href="#i" y1="259.296906" y2="-59.085064"/><linearGradient id="k" gradientUnits="userSpaceOnUse" x1="15.54572" x2="15.54572" xlink:href="#i" y1="28.03386419623" y2="2.89610343548"/><path d="m8.601562 28.035156h13.890626v1.320313h-13.890626zm0 0" fill="url(#a)"/><path d="m22.492188 28.035156h2.644531v-1.324218h-2.644531zm0 0" fill="url(#c)"/><path d="m8.601562 28.035156h-2.648437v1.320313h2.648437zm0 0" fill="url(#d)"/><path d="m8.601562 28.035156h-2.648437v-1.324218h2.648437zm0 0" fill="url(#e)"/><path d="m22.492188 28.035156h2.644531v1.320313h-2.644531zm0 0" fill="url(#f)"/><path d="m7.277344 2.894531c-.734375 0-1.324219.589844-1.324219 1.324219v22.492188c0 .734374.589844 1.324218 1.324219 1.324218h16.539062c.730469 0 1.320313-.589844 1.320313-1.324218v-17.859376l-5.953125-5.957031zm13.230468 0 4.628907 4.632813v-3.308594c0-.734375-.589844-1.324219-1.320313-1.324219zm0 0" fill="url(#g)"/><g fill="url(#h)" stroke="#212121" stroke-linecap="round" stroke-linejoin="round" stroke-width="3"><path d="m122.674036 91.368321 137.55839-.03087c5.852445-.012698 10.606156 4.752391 10.564733 10.573589.012698 5.852445-4.752391 10.606156-10.573589 10.564733l-137.55839.03087c-5.852445.012698-10.606156-4.752391-10.564733-10.573589-.012698-5.852444 4.721144-10.552034 10.573589-10.564733zm0 0" transform="matrix(.0541318 -.031253 .031253 .0541318 0 13.438783)"/><path d="m122.625077 133.699086 137.612512.000377c5.852444-.012698 10.552034 4.721144 10.564732 10.573589.012699 5.852444-4.721144 10.552034-10.573588 10.564733l-137.55839.03087c-5.852445.012698-10.606156-4.752391-10.618855-10.604836-.012698-5.852445 4.752391-10.606156 10.573589-10.564733zm0 0" transform="matrix(.0541318 -.031253 .031253 .0541318 0 13.438783)"/><path d="m122.661487 176.006976 137.55839-.03087c5.821198.041423 10.606156 4.752391 10.618854 10.604836.012699 5.852445-4.752391 10.606156-10.604836 10.618854l-137.612511-.000377c-5.821198-.041423-10.552034-4.721144-10.564733-10.573588-.012698-5.852445 4.752391-10.606156 10.604836-10.618855zm0 0" transform="matrix(.0541318 -.031253 .031253 .0541318 0 13.438783)"/><path d="m122.647661 219.151806 137.612511.000377c5.852445-.012699 10.552035 4.721144 10.564733 10.573588.012699 5.852445-4.752391 10.606156-10.573588 10.564733l-137.612512-.000377c-5.852445.012699-10.552034-4.721144-10.564733-10.573588-.012698-5.852445 4.721144-10.552035 10.573589-10.564733zm0 0" transform="matrix(.0541318 -.031253 .031253 .0541318 0 13.438783)"/></g><path d="m5.953125 16.789062h19.183594v6.285157h-19.183594zm0 0" fill="url(#j)"/><path d="m20.507812 2.894531 4.628907 4.632813v-3.308594c0-.734375-.589844-1.324219-1.320313-1.324219zm0 0" fill="url(#k)"/><path d="m7.277344 2.894531c-.734375 0-1.324219.589844-1.324219 1.324219v.332031c0-.734375.589844-1.324219 1.324219-1.324219h11.90625l5.953125 5.953126v-.328126l-5.953125-5.957031zm13.230468 0 .332032.332031h2.976562c.730469 0 1.320313.589844 1.320313 1.324219v-.332031c0-.734375-.589844-1.324219-1.320313-1.324219zm0 0" fill="#fff" fill-opacity=".392157"/><path d="m20.507812 2.894531 4.628907 4.632813v-.492188l-4.140625-4.140625zm-14.554687 23.324219v.492188c0 .734374.589844 1.324218 1.324219 1.324218h16.539062c.730469 0 1.320313-.589844 1.320313-1.324218v-.492188c0 .734375-.589844 1.324219-1.320313 1.324219h-16.539062c-.734375 0-1.324219-.589844-1.324219-1.324219zm0 0" fill-opacity=".235294"/><path d="m5.953125 23.074219v.496093h19.183594v-.496093zm0 0" fill-opacity=".235294"/><path d="m5.953125 16.789062v.496094h19.183594v-.496094zm0 0" fill="#fff" fill-opacity=".392157"/><path d="m5.953125 16.695312c-.050781 0-.09375.039063-.09375.09375v6.285157c0 .050781.042969.09375.09375.09375h19.183594c.054687 0 .09375-.042969.09375-.09375v-6.285157c0-.054687-.039063-.09375-.09375-.09375zm.09375.1875h18.996094v6.097657h-18.996094zm0 0" fill="#212121"/><path d="m7.277344 2.800781c-.785156 0-1.417969.636719-1.417969 1.417969v22.492188c0 .785156.632813 1.417968 1.417969 1.417968h16.539062c.78125 0 1.414063-.632812 1.414063-1.417968v-17.859376c0-.027343-.007813-.050781-.027344-.066406l-5.953125-5.957031c-.015625-.015625-.039062-.027344-.066406-.027344zm13.230468 0c-.039062 0-.074218.023438-.085937.058594-.015625.035156-.007813.078125.019531.101563l4.628906 4.632812c.027344.027344.066407.035156.101563.019531s.058594-.046875.058594-.085937v-3.308594c0-.78125-.632813-1.417969-1.414063-1.417969zm-13.230468.1875h11.867187l5.898438 5.898438v17.824219c0 .683593-.546875 1.230468-1.226563 1.230468h-16.539062c-.683594 0-1.230469-.546875-1.230469-1.230468v-22.492188c0-.683594.546875-1.230469 1.230469-1.230469zm13.457031 0h3.082031c.679688 0 1.226563.546875 1.226563 1.230469v3.082031zm0 0" fill="#212121"/></svg>

<?xml version="1.0" encoding="UTF-8"?>
<svg xmlns="http://www.w3.org/2000/svg" xmlns:xlink="http://www.w3.org/1999/xlink" width="32px" height="32px" viewBox="0 0 32 32" version="1.1">
<defs>
<linearGradient id="linear0" gradientUnits="userSpaceOnUse" x1="254" y1="233.5" x2="254" y2="254.666672" gradientTransform="matrix(0.062506,0,0,0.062506,-0.00000250024,13.438784)">
<stop offset="0" style="stop-color:rgb(0%,0%,0%);stop-opacity:0.27451;"/>
<stop offset="1" style="stop-color:rgb(0%,0%,0%);stop-opacity:0;"/>
</linearGradient>
<radialGradient id="radial0" gradientUnits="userSpaceOnUse" cx="450.908936" cy="189.579361" fx="450.908936" fy="189.579361" r="21.166656" gradientTransform="matrix(0.00000017417,-0.0781325,-0.140638,-0.000000101539,48.823044,63.595333)">
<stop offset="0" style="stop-color:rgb(0%,0%,0%);stop-opacity:0.313726;"/>
<stop offset="0.222222" style="stop-color:rgb(0%,0%,0%);stop-opacity:0.27451;"/>
<stop offset="1" style="stop-color:rgb(0%,0%,0%);stop-opacity:0;"/>
</radialGradient>
<radialGradient id="radial1" gradientUnits="userSpaceOnUse" cx="450.908936" cy="189.579361" fx="450.908936" fy="189.579361" r="21.166656" gradientTransform="matrix(-0.00000017417,0.0781325,0.140638,0.000000101539,-17.731531,-7.527479)">
<stop offset="0" style="stop-color:rgb(0%,0%,0%);stop-opacity:0.313726;"/>
<stop offset="0.222222" style="stop-color:rgb(0%,0%,0%);stop-opacity:0.27451;"/>
<stop offset="1" style="stop-color:rgb(0%,0%,0%);stop-opacity:0;"/>
</radialGradient>
<radialGradient id="radial2" gradientUnits="userSpaceOnUse" cx="450.908936" cy="189.579361" fx="450.908936" fy="189.579361" r="21.166656" gradientTransform="matrix(-0.00000017417,-0.0781325,0.140638,-0.000000101539,-17.731531,63.595336)">
<stop offset="0" style="stop-color:rgb(0%,0%,0%);stop-opacity:0.313726;"/>
<stop offset="0.222222" style="stop-color:rgb(0%,0%,0%);stop-opacity:0.27451;"/>
<stop offset="1" style="stop-color:rgb(0%,0%,0%);stop-opacity:0;"/>
</radialGradient>
<radialGradient id="radial3" gradientUnits="userSpaceOnUse" cx="450.908936" cy="189.579361" fx="450.908936" fy="189.579361" r="21.166656" gradientTransform="matrix(0.00000017417,0.0781325,-0.140638,0.000000101539,48.823044,-7.527479)">
<stop offset="0" style="stop-color:rgb(0%,0%,0%);stop-opacity:0.313726;"/>
<stop offset="0.222222" style="stop-color:rgb(0%,0%,0%);stop-opacity:0.27451;"/>
<stop offset="1" style="stop-color:rgb(0%,0%,0%);stop-opacity:0;"/>
</radialGradient>
<linearGradient id="linear1" gradientUnits="userSpaceOnUse" x1="940" y1="1695.118164" x2="940" y2="175.118118" gradientTransform="matrix(0.016538,0,0,0.016538,0,0)">
<stop offset="0" style="stop-color:rgb(93.333334%,93.333334%,93.333334%);stop-opacity:1;"/>
<stop offset="1" style="stop-color:rgb(96.078432%,96.078432%,96.078432%);stop-opacity:1;"/>
</linearGradient>
<linearGradient id="linear2" gradientUnits="userSpaceOnUse" x1="200.174942" y1="142.538422" x2="308.654114" y2="-45.353008" gradientTransform="matrix(1,0.000000000000000056,-0.000000000000000056,1,-57.266991,117.937752)">
<stop offset="0" style="stop-color:rgb(61.960787%,61.960787%,61.960787%);stop-opacity:1;"/>
<stop offset="1" style="stop-color:rgb(74.117649%,74.117649%,74.117649%);stop-opacity:1;"/>
</linearGradient>
<linearGradient id="linear3" gradientUnits="userSpaceOnUse" x1="200.174942" y1="142.538422" x2="308.654114" y2="-45.353008" gradientTransform="matrix(1,0.000000000000000056,-0.000000000000000056,1,-57.266991,117.937752)">
<stop offset="0" style="stop-color:rgb(61.960787%,61.960787%,61.960787%);stop-opacity:1;"/>
<stop offset="1" style="stop-color:rgb(74.117649%,74.117649%,74.117649%);stop-opacity:1;"/>
</linearGradient>
<linearGradient id="linear4" gradientUnits="userSpaceOnUse" x1="200.174942" y1="142.538422" x2="308.654114" y2="-45.353008" gradientTransform="matrix(1,0.000000000000000056,-0.000000000000000056,1,-57.266991,117.937752)">
<stop offset="0" style="stop-color:rgb(61.960787%,61.960787%,61.960787%);stop-opacity:1;"/>
<stop offset="1" style="stop-color:rgb(74.117649%,74.117649%,74.117649%);stop-opacity:1;"/>
</linearGradient>
<linearGradient id="linear5" gradientUnits="userSpaceOnUse" x1="200.174942" y1="142.538422" x2="308.654114" y2="-45.353008" gradientTransform="matrix(1,0.000000000000000056,-0.000000000000000056,1,-57.266991,117.937752)">
<stop offset="0" style="stop-color:rgb(61.960787%,61.960787%,61.960787%);stop-opacity:1;"/>
<stop offset="1" style="stop-color:rgb(74.117649%,74.117649%,74.117649%);stop-opacity:1;"/>
</linearGradient>
<linearGradient id="linear6" gradientUnits="userSpaceOnUse" x1="243.416656" y1="259.296906" x2="243.416656" y2="-59.085064" gradientTransform="matrix(0.062506,0,0,0.0789549,0.000000635844,7.561165)">
<stop offset="0" style="stop-color:rgb(25.882354%,64.705884%,96.078432%);stop-opacity:1;"/>
<stop offset="1" style="stop-color:rgb(39.215687%,70.980394%,96.470588%);stop-opacity:1;"/>
</linearGradient>
<linearGradient id="linear7" gradientUnits="userSpaceOnUse" x1="940" y1="1695.118164" x2="940" y2="175.118118" gradientTransform="matrix(0.016538,0,0,0.016538,0,0)">
<stop offset="0" style="stop-color:rgb(25.882354%,64.705884%,96.078432%);stop-opacity:1;"/>
<stop offset="1" style="stop-color:rgb(39.215687%,70.980394%,96.470588%);stop-opacity:1;"/>
</linearGradient>
</defs>
<g id="surface1">
<path style=" stroke:none;fill-rule:nonzero;fill:url(#linear0);" d="M 8.601562 28.035156 L 22.492188 28.035156 L 22.492188 29.355469 L 8.601562 29.355469 Z M 8.601562 28.035156 "/>
<path style=" stroke:none;fill-rule:nonzero;fill:url(#radial0);" d="M 22.492188 28.035156 L 25.136719 28.035156 L 25.136719 26.710938 L 22.492188 26.710938 Z M 22.492188 28.035156 "/>
<path style=" stroke:none;fill-rule:nonzero;fill:url(#radial1);" d="M 8.601562 28.035156 L 5.953125 28.035156 L 5.953125 29.355469 L 8.601562 29.355469 Z M 8.601562 28.035156 "/>
<path style=" stroke:none;fill-rule:nonzero;fill:url(#radial2);" d="M 8.601562 28.035156 L 5.953125 28.035156 L 5.953125 26.710938 L 8.601562 26.710938 Z M 8.601562 28.035156 "/>
<path style=" stroke:none;fill-rule:nonzero;fill:url(#radial3);" d="M 22.492188 28.035156 L 25.136719 28.035156 L 25.136719 29.355469 L 22.492188 29.355469 Z M 22.492188 28.035156 "/>
<path style=" stroke:none;fill-rule:nonzero;fill:url(#linear1);" d="M 7.277344 2.894531 C 6.542969 2.894531 5.953125 3.484375 5.953125 4.21875 L 5.953125 26.710938 C 5.953125 27.445312 6.542969 28.035156 7.277344 28.035156 L 23.816406 28.035156 C 24.546875 28.035156 25.136719 27.445312 25.136719 26.710938 L 25.136719 8.851562 L 19.183594 2.894531 Z M 20.507812 2.894531 L 25.136719 7.527344 L 25.136719 4.21875 C 25.136719 3.484375 24.546875 2.894531 23.816406 2.894531 Z M 20.507812 2.894531 "/>
<path style="fill-rule:nonzero;fill:url(#linear2);stroke-width:3;stroke-linecap:round;stroke-linejoin:round;stroke:rgb(12.941177%,12.941177%,12.941177%);stroke-opacity:1;stroke-miterlimit:4;" d="M 122.674036 91.368321 L 260.232426 91.337451 C 266.084871 91.324753 270.838582 96.089842 270.797159 101.91104 C 270.809857 107.763485 266.044768 112.517196 260.22357 112.475773 L 122.66518 112.506643 C 116.812735 112.519341 112.059024 107.754252 112.100447 101.933054 C 112.087749 96.08061 116.821591 91.38102 122.674036 91.368321 Z M 122.674036 91.368321 " transform="matrix(0.0541318,-0.031253,0.031253,0.0541318,0,13.438783)"/>
<path style="fill-rule:nonzero;fill:url(#linear3);stroke-width:3;stroke-linecap:round;stroke-linejoin:round;stroke:rgb(12.941177%,12.941177%,12.941177%);stroke-opacity:1;stroke-miterlimit:4;" d="M 122.625077 133.699086 L 260.237589 133.699463 C 266.090033 133.686765 270.789623 138.420607 270.802321 144.273052 C 270.81502 150.125496 266.081177 154.825086 260.228733 154.837785 L 122.670343 154.868655 C 116.817898 154.881353 112.064187 150.116264 112.051488 144.263819 C 112.03879 138.411374 116.803879 133.657663 122.625077 133.699086 Z M 122.625077 133.699086 " transform="matrix(0.0541318,-0.031253,0.031253,0.0541318,0,13.438783)"/>
<path style="fill-rule:nonzero;fill:url(#linear4);stroke-width:3;stroke-linecap:round;stroke-linejoin:round;stroke:rgb(12.941177%,12.941177%,12.941177%);stroke-opacity:1;stroke-miterlimit:4;" d="M 122.661487 176.006976 L 260.219877 175.976106 C 266.041075 176.017529 270.826033 180.728497 270.838731 186.580942 C 270.85143 192.433387 266.08634 197.187098 260.233895 197.199796 L 122.621384 197.199419 C 116.800186 197.157996 112.06935 192.478275 112.056651 186.625831 C 112.043953 180.773386 116.809042 176.019675 122.661487 176.006976 Z M 122.661487 176.006976 " transform="matrix(0.0541318,-0.031253,0.031253,0.0541318,0,13.438783)"/>
<path style="fill-rule:nonzero;fill:url(#linear5);stroke-width:3;stroke-linecap:round;stroke-linejoin:round;stroke:rgb(12.941177%,12.941177%,12.941177%);stroke-opacity:1;stroke-miterlimit:4;" d="M 122.647661 219.151806 L 260.260172 219.152183 C 266.112617 219.139484 270.812207 223.873327 270.824905 229.725771 C 270.837604 235.578216 266.072514 240.331927 260.251317 240.290504 L 122.638805 240.290127 C 116.78636 240.302826 112.086771 235.568983 112.074072 229.716539 C 112.061374 223.864094 116.795216 219.164504 122.647661 219.151806 Z M 122.647661 219.151806 " transform="matrix(0.0541318,-0.031253,0.031253,0.0541318,0,13.438783)"/>
<path style=" stroke:none;fill-rule:nonzero;fill:url(#linear6);" d="M 5.953125 16.789062 L 25.136719 16.789062 L 25.136719 23.074219 L 5.953125 23.074219 Z M 5.953125 16.789062 "/>
<path style=" stroke:none;fill-rule:nonzero;fill:url(#linear7);" d="M 20.507812 2.894531 L 25.136719 7.527344 L 25.136719 4.21875 C 25.136719 3.484375 24.546875 2.894531 23.816406 2.894531 Z M 20.507812 2.894531 "/>
<path style=" stroke:none;fill-rule:nonzero;fill:rgb(100%,100%,100%);fill-opacity:0.392157;" d="M 7.277344 2.894531 C 6.542969 2.894531 5.953125 3.484375 5.953125 4.21875 L 5.953125 4.550781 C 5.953125 3.816406 6.542969 3.226562 7.277344 3.226562 L 19.183594 3.226562 L 25.136719 9.179688 L 25.136719 8.851562 L 19.183594 2.894531 Z M 20.507812 2.894531 L 20.839844 3.226562 L 23.816406 3.226562 C 24.546875 3.226562 25.136719 3.816406 25.136719 4.550781 L 25.136719 4.21875 C 25.136719 3.484375 24.546875 2.894531 23.816406 2.894531 Z M 20.507812 2.894531 "/>
<path style=" stroke:none;fill-rule:nonzero;fill:rgb(0%,0%,0%);fill-opacity:0.235294;" d="M 20.507812 2.894531 L 25.136719 7.527344 L 25.136719 7.035156 L 20.996094 2.894531 Z M 5.953125 26.21875 L 5.953125 26.710938 C 5.953125 27.445312 6.542969 28.035156 7.277344 28.035156 L 23.816406 28.035156 C 24.546875 28.035156 25.136719 27.445312 25.136719 26.710938 L 25.136719 26.21875 C 25.136719 26.953125 24.546875 27.542969 23.816406 27.542969 L 7.277344 27.542969 C 6.542969 27.542969 5.953125 26.953125 5.953125 26.21875 Z M 5.953125 26.21875 "/>
<path style=" stroke:none;fill-rule:nonzero;fill:rgb(0%,0%,0%);fill-opacity:0.235294;" d="M 5.953125 23.074219 L 5.953125 23.570312 L 25.136719 23.570312 L 25.136719 23.074219 Z M 5.953125 23.074219 "/>
<path style=" stroke:none;fill-rule:nonzero;fill:rgb(100%,100%,100%);fill-opacity:0.392157;" d="M 5.953125 16.789062 L 5.953125 17.285156 L 25.136719 17.285156 L 25.136719 16.789062 Z M 5.953125 16.789062 "/>
<path style=" stroke:none;fill-rule:nonzero;fill:rgb(12.941177%,12.941177%,12.941177%);fill-opacity:1;" d="M 5.953125 16.695312 C 5.902344 16.695312 5.859375 16.734375 5.859375 16.789062 L 5.859375 23.074219 C 5.859375 23.125 5.902344 23.167969 5.953125 23.167969 L 25.136719 23.167969 C 25.191406 23.167969 25.230469 23.125 25.230469 23.074219 L 25.230469 16.789062 C 25.230469 16.734375 25.191406 16.695312 25.136719 16.695312 Z M 6.046875 16.882812 L 25.042969 16.882812 L 25.042969 22.980469 L 6.046875 22.980469 Z M 6.046875 16.882812 "/>
<path style=" stroke:none;fill-rule:nonzero;fill:rgb(12.941177%,12.941177%,12.941177%);fill-opacity:1;" d="M 7.277344 2.800781 C 6.492188 2.800781 5.859375 3.4375 5.859375 4.21875 L 5.859375 26.710938 C 5.859375 27.496094 6.492188 28.128906 7.277344 28.128906 L 23.816406 28.128906 C 24.597656 28.128906 25.230469 27.496094 25.230469 26.710938 L 25.230469 8.851562 C 25.230469 8.824219 25.222656 8.800781 25.203125 8.785156 L 19.25 2.828125 C 19.234375 2.8125 19.210938 2.800781 19.183594 2.800781 Z M 20.507812 2.800781 C 20.46875 2.800781 20.433594 2.824219 20.421875 2.859375 C 20.40625 2.894531 20.414062 2.9375 20.441406 2.960938 L 25.070312 7.59375 C 25.097656 7.621094 25.136719 7.628906 25.171875 7.613281 C 25.207031 7.597656 25.230469 7.566406 25.230469 7.527344 L 25.230469 4.21875 C 25.230469 3.4375 24.597656 2.800781 23.816406 2.800781 Z M 7.277344 2.988281 L 19.144531 2.988281 L 25.042969 8.886719 L 25.042969 26.710938 C 25.042969 27.394531 24.496094 27.941406 23.816406 27.941406 L 7.277344 27.941406 C 6.59375 27.941406 6.046875 27.394531 6.046875 26.710938 L 6.046875 4.21875 C 6.046875 3.535156 6.59375 2.988281 7.277344 2.988281 Z M 20.734375 2.988281 L 23.816406 2.988281 C 24.496094 2.988281 25.042969 3.535156 25.042969 4.21875 L 25.042969 7.300781 Z M 20.734375 2.988281 "/>
</g>
</svg>
